X:1
T:Transcendental Etudes after Paganini
T:Transcendental Etudes after Paganini
T:No. 4 Vesion II
T:N. Paganini/F. Liszt
C:N. Paganini/F. Liszt
%%score { ( 1 5 ) | ( 2 4 ) | 3 }
L:1/8
Q:1/4=60
M:2/4
K:E
V:1 treble nm="Piano" snm="Pno."
V:5 treble 
V:2 bass 
V:4 bass 
V:3 treble 
V:1
!p! .[B,E]/4"_leggierament".[EG]/4.[GB]/4.[Be]/4 .[Be]/4.[GB]/4.[EG]/4.[B,E]/4 | %1
 .[B,D]/4.[DF]/4.[FB]/4.[Bf]/4 .[Bf]/4.[FB]/4.[DF]/4.[B,D]/4 .[B,E]/4.[EG]/4.[GB]/4.[Be]/4 .[Be]/4.[GB]/4.[EG]/4.[B,E]/4 | %2
!<(! .[B,D]/4.[DB]/4.[Bd]/4.[db]/4!<)!!>(! .[db]/4.[Bd]/4.[DB]/4.[B,D]/4!>)!"_sempre stacc." .[B,E]/4.[EG]/4.[GB]/4.[Be]/4 .[Be]/4.[GB]/4.[EG]/4.[B,E]/4 | %3
 .[B,D]/4.[DF]/4.[FB]/4.[Bf]/4 .[Bf]/4.[FB]/4.[DF]/4.[B,D]/4 .[B,E]/4.[EG]/4.[GB]/4.[Be]/4 .[Be]/4.[GB]/4.[EG]/4.[B,E]/4 | %4
!<(! .[B,D]/4.[DB]/4.[Bd]/4.[db]/4 .[db]/4.[Bd]/4.[DB]/4.[B,D]/4!<)! [G,=DE]/4[B,G]/4[Ge]/4[Bg]/4 [Bg]/4[Ge]/4[B,G]/4[G,E]/4 | %5
 [A,E]/4[CA]/4[Ae]/4[ca]/4 !wedge![ec']/!wedge![ae']/ [^A,EF]/4[C^A]/4[Af]/4[c^a]/4 [ca]/4[Af]/4[CA]/4[A,F]/4 | %6
 [B,F]/4[DB]/4[Bf]/4[db]/4 !wedge![fd']/!wedge![bf']/"_poco a poco cresc." [DF]/4[Bd]/4[df]/4[bd']/4 [bd']/4[df]/4[Bd]/4[DF]/4 | %7
 [EG]/4[Be]/4[eg]/4[be']/4 [be']/4[eg]/4[Be]/4[EG]/4 [FB]/4[df]/4[fb]/4[d'f']/4 [d'f']/4[fb]/4[df]/4[FB]/4 | %8
 [GB]/4[eg]/4[gb]/4[e'g']/4 [e'g']/4[gb]/4[eg]/4[GB]/4 [Ac]/4[ea]/4[ac']/4[e'a']/4 [e'a']/4[ac']/4[ea]/4[Ac]/4 | %9
 [^A=g]/4"_molto"[ec']/4!8va(![^a=g']/4[e'c'']/4 [e'c'']/4[ag']/4!8va)![ec']/4[Ag]/4!<(! [ca]/4[ge']/4!8va(![c'^a']/4[g'e'']/4 [g'e'']/4[c'a']/4!8va)![ge']/4[ca]/4!<)! | %10
!<(! [^A=g]/4[ec']/4!8va(![^a=g']/4[e'c'']/4!<)! [e'c'']/4[ag']/4!8va)![ec']/4[Ag]/4!<(! [=Ge]/4[ca]/4!8va(![ge']/4[c'^a']/4!<)! [c'a']/4[ge']/4!8va)![ca]/4[Ge]/4 | %11
!<(! [Ec]/4[^A=g]/4!8va(![ec']/4[^a=g']/4!<)! [ag']/4[ec']/4!8va)![Ag]/4[Ec]/4!<(! [CA]/4[=Ge]/4[ca]/4[ge']/4!<)! [ge']/4[ca]/4[Ge]/4[CA]/4 | %12
 [B,F]/4[DB]/4[Bf]/4[db]/4!wedge![fd']/!wedge![bf']/!p! z/!>(! ([ff']/[=c=c']/[Bb]/)!>)! | %13
 ([Bb]3/4[cc']/8[dd']/8) !wedge![ee']/!wedge![gg']/"^legg." !wedge![A,B,]/4!wedge![DF]/4!wedge![AB]/4!wedge![df]/4 !wedge![df]/4!wedge![AB]/4!wedge![DF]/4!wedge![A,B,]/4 | %14
 z/4!<(! [EG]/4B/4[eg]/4 !wedge![Gb]/!wedge![Be']/!<)!!f! !>!!wedge!A,/!wedge![cac']/ !>!!wedge!B,/!wedge![egbe']/ | %15
 !>!C/!wedge![eac'e']/ !>!=C/!wedge![f^ae'f']/ !>!B,/!wedge![gbe'g']/ !>!B,/!wedge![=abd'f'b']/ | %16
 !wedge!!^![G,B,E]!8va(!!wedge!!^![e'g'b'e'']!8va)!!p! [=G,B,E]/4[B,E=G]/4[EGB]/4[GBe]/4 [GBe]/4[EGB]/4[B,EG]/4[G,B,E]/4 | %17
 [F,B,^D]/4[B,DF]/4[DAB]/4[ABf]/4 [ABf]/4[DAB]/4[B,DF]/4[F,B,D]/4!<(! [=G,B,E]/4[B,E=G]/4[EGB]/4[GBe]/4 [GBe]/4[EGB]/4[B,EG]/4[G,B,E]/4!<)! | %18
!<(! [F,B,^D]/4[B,DF]/4[F^d]/4[db]/4 [db]/4[Fd]/4[B,DF]/4[F,B,D]/4!<)! [=G,B,E]/4[B,E=G]/4[EGB]/4[GBe]/4 [GBe]/4[EGB]/4[B,EG]/4[G,B,E]/4 | %19
 [F,B,^D]/4[B,DF]/4[DAB]/4[ABf]/4 [ABf]/4[DAB]/4[B,DF]/4[F,B,D]/4!<(! [=G,B,E]/4[B,E=G]/4[GB]/4[Be]/4 [Be]/4[GB]/4[EG]/4[B,E]/4!<)! | %20
!<(! [B,^D]/4[DB]/4[F^d]/4[db]/4 [db]/4[Fd]/4[DB]/4[B,D]/4!<)! [B,=D]/4[FB]/4[B=d]/4[fb]/4 [fb]/4[Bd]/4[FB]/4[B,D]/4 | %21
 [=C=D]/4[F=c]/4[c=d]/4[f=c']/4 [fc']/4[cd]/4[Fc]/4[CD]/4 [A,D]/4[FA]/4[Ad]/4[fa]/4 [fa]/4[Ad]/4[FA]/4[A,D]/4 | %22
 =D/4[=GB]/4[B=d]/4[=gb]/4 [gb]/4[Bd]/4[GB]/4[B,D]/4 [B,D]/4[GB]/4!8va(![gb]/4[b=g']/4 [bg']/4[gb]/4!8va)![GB]/4[B,D]/4 | %23
 [B,=D]/4[=GB]/4!8va(![b=d']/4[=g'b']/4 [g'b']/4[bd']/4!8va)![GB]/4[B,D]/4 [B,D]/4[GB]/4!8va(![d'g']/4[b'=d'']/4 [b'd'']/4[d'g']/4!8va)![GB]/4[B,D]/4 | %24
"_sempre più cresc.e marcato la mana sinistra" [=CE]/4[E=c]/4[ce]/4[e=c']/4 !wedge!^C/!wedge![Ae^c']/ [=DF]/4[F=d]/4[df]/4[f=d']/4 !wedge!^D/!wedge![Bf^d']/ | %25
 [E=G]/4[Ge]/4[e=g]/4[ge']/4 !wedge!F/!arpeggio!!wedge![=daf']/ !wedge!G/!arpeggio!!wedge![db=g']/ !wedge![FA]/!arpeggio!!wedge![f=d'a']/ | %26
 !wedge![=GB]/!8va(!!arpeggio!!wedge![=g=d'b']/!8va)! !wedge![G=c]/!8va(!!arpeggio!!wedge![ge'=c'']/!8va)! [^CE^c]/4 !wedge![ce]/4!wedge![^c'e']/4!wedge![eg]/4!wedge![e'=g']/4!wedge![g^a]/4!wedge![g'_b']/4 !>!C/4 | %27
(3!>!=D/!ff!!8va(! !wedge![=d'f'=d'']/!wedge![=c'e'=c'']/(3!wedge![bd'b']/!wedge![ac'a']/!wedge![=gb=g']/(3!wedge![faf']/!wedge![ege']/!wedge![=dfd']/!8va)!(3!wedge![=cec']/!wedge![Bdb]/!wedge![Aca]/ | %28
 [=GB=g]/ z/!p!!<(! !arpeggio!!>!=d'- d'/_e'/!<)!!>(! b/=c'/!>)! | %29
!p! (3=d'/!8va(! !wedge![d'b'=d'']/!wedge![=c'a'=c'']/(3!wedge![b=g'b']/!wedge![af'a']/!wedge![=ge'g']/(3!wedge![fd'f']/!wedge![ec'e']/!wedge![=dbd']/!8va)!(3!wedge![=cac']/!wedge![Bgb]/!wedge![Afa]/ | %30
"_agitato" [B=gb]/ z/!<(! !arpeggio!!>!=d'- d'/!<)!_e'/!>(! b/=c'/!>)! | %31
!p! (3=d'/!8va(! !wedge![d'b'=d'']/!wedge![=c'a'=c'']/(3!wedge![b=g'b']/!wedge![af'a']/!wedge![=ge'g']/(3!wedge![fd'f']/!wedge![ec'e']/!wedge![=dbd']/!8va)!(3!wedge![=cac']/!wedge![Bgb]/!wedge![Afa]/ | %32
 [B=gb]/ z/!<(! !arpeggio!!>!=d'- d'/d'/!<)! ^c'/d'/ | %33
!>(! =f'/_e'/4 z/4!>)!!p!!8va(! (3!wedge![_d'_b'_d'']/!wedge![d'b'd'']/!wedge![=c'_a'=c'']/(3!wedge![_b=g'b']/!wedge![bg'b']/!wedge![_af'a']/!wedge![=ge'g']/4!wedge![=fd'f']/4!wedge![_ec'e']/4!wedge![_dbd']/4!8va)! | %34
 [=c_a=c']/ z/"_più agitato"!<(! !arpeggio!!>!_e'- e'/e'/ =d'/e'/!<)! | %35
 !>!f'/!>!e'/4 z/4!8va(! (3!wedge![=d'b'=d'']/!wedge![d'b'd'']/!wedge![^c'a'^c'']/(3!wedge![b^g'b']/!wedge![bg'b']/!wedge![af'a']/[^ge'g']/4[fd'f']/4[ec'e']/4[=dbd']/4!8va)! | %36
 [^ca^c']/ z/!<(! !arpeggio!!>!e'- (6:4:6e'/e'/^d'/e'/d'/e'/!<)! | %37
 !>!=g'/!>!=f'/4 z/4!8va(! (3!wedge![_e'=c''_e'']/!wedge![e'c''e'']/!wedge![=d'_b'=d'']/(3!wedge![=c'a'c'']/!wedge![c'a'c'']/!wedge![_bg'b']/!wedge![af'a']/4!wedge![=ge'g']/4!wedge![=fd'f']/4!wedge![_ec'e']/4!8va)! | %38
"_quasi forte ma sempre più cresc.e agitato" !wedge![=d_b=d']/ z/[K:bass] (=F,,>F,,E,,/F,,/) | %39
 _G,,[K:treble]"^martellato"!8va(! (3!wedge![=e'^c''=e'']/!wedge![e'c''e'']/!wedge![^d'b'^d'']/(3!wedge![^c'^a'c'']/!wedge![c'a'c'']/!wedge![b^g'b']/!wedge![^af'a']/4!wedge![^ge'g']/4!wedge![fd'f']/4!wedge![ec'e']/4!8va)! | %40
 !wedge![^db^d'][K:bass]"^pesante" (F,,>F,,^E,,/F,,/) | %41
 =G,,[K:treble]!8va(! (3!wedge![=f'=d''=f'']/!wedge![f'd''f'']/!wedge![e'=c''e'']/(3!wedge![=d'b'd'']/!wedge![d'b'd'']/!wedge![=c'a'c'']/!wedge![b=g'b']/4!wedge![af'a']/4!wedge![=ge'g']/4!wedge![=fd'f']/4!8va)! | %42
[K:treble] !wedge![e=c'e'][K:bass] (=G,,>G,,F,,/G,,/) | %43
 _A,,[K:treble]!ff!"_con bravura\nmolto energico\n"!8va(! (3[_g'_e''_g'']/[g'e''g'']/[=f'_d''=f'']/(3[_e'=c''e'']/[e'c''e'']/[_d'_b'd'']/(3[=c'_a'c'']/[c'a'c'']/[_bg'b']/ | %44
 (3[_a=f'_a']/[af'a']/[=ge'=g']/!ff!(3[_g_e'_g']/[ge'g']/[=f_d'f']/(3[_e=c'e']/[ec'e']/[_d_bd']/!8va)!(3[=cac']/[cac']/[_Bgb]/ | %45
(3[_A=f_a]/[Afa]/"^ancora più rinforzando"[=Ge=g]/(3[_G_e_g]/[Geg]/[=F_df]/(3[_E=ce]/[Ece]/[_D_Bd]/(3[=CAc]/[CAc]/[_B,GB]/ | %46
(3[_A,=F_A]/[A,FA]/[A,E=GA]/(3!^![A,_E_GA]/[A,EGA]/[A,=DFA]/ !wedge!!^![A,_D_FA]/!wedge!!^![A,=CEA]/ z/ !wedge!!^![A,=B,=DA]/ | %47
 z/ !wedge!!^![_A,_B,_D_A]/ z/ !wedge!!^![A,__B,DA]/ !wedge!!^![A,=CA]!8va(! !arpeggio!!wedge![_g_a=c'_a']!8va)! | %48
 z2!p!"^una corda" [=F,_D]/4[_A,=F]/4x/4[_A=f]/4 [Af]/4[F_d]/4[A,F]/4[F,D]/4 | %49
 =C/4_E/4x/4[_A_g]/4 [Ag]/4[_G_e]/4E/4C/4!p! [=F,_D]/4[_A,=F]/4x/4[A=f]/4 [Af]/4[F_d]/4[A,F]/4[F,D]/4 | %50
 =C/4_E/4x/4[=c_a]/4 [ca]/4[_G_e]/4E/4C/4 [_F,_D]/4[_A,_F]/4x/4[_A_f]/4 [Af]/4[F_d]/4[A,F]/4[F,D]/4 | %51
 =C/4_E/4x/4[_A_g]/4 [Ag]/4[_G_e]/4E/4C/4!p! [_F,_D]/4[_A,_F]/4x/4[A_f]/4 [Af]/4[F_d]/4[A,F]/4[F,D]/4 | %52
 =C/4_E/4x/4[=c_a]/4 [ca]/4[_G_e]/4E/4C/4"_cresc." ^C/4=E/4x/4[^G=e]/4 [Ge]/4[E^c]/4E/4C/4 | %53
 =D/4E/4x/4[Ge]/4 [Ge]/4[E=d]/4E/4D/4 C/4E/4x/4[ca]/4 [ca]/4[Ae]/4E/4C/4 | %54
 C/4E/4"_string."x/4[ec']/4 [ec']/4[ce]/4=G/4^A,/4 !>!!wedge!B,/!wedge![Fdb]/ !>!!wedge!=A,/!wedge![Fdb]/ | %55
 !>!!wedge!G,/!wedge![GBg]/ !>!!wedge!A,/!wedge![Aca]/ !>!!wedge!B,/!wedge![Beb]/ !>!!wedge!B,/!wedge![Bdb]/ | %56
 z2!fff!"^con bravura" x2 | x4 | x4 | x4 | x4 | %61
[I:staff +1] [A,,C,E,]/4[I:staff -1][A,CEA]/4[cc']/4[aa']/4!8va(! !wedge![c'c'']/!wedge![e'e'']/!8va)! x2 | %62
[I:staff +1] [B,,D,F,]/4[I:staff -1][B,DFB]/4[dd']/4[bb']/4!8va(! !wedge![d'd'']/!wedge![f'f'']/!8va)! x2 | %63
 x4 | x4 | x4 | x4 | x4 | x2[K:bass][K:treble]!mf! z/!>(! ([ff']/[=c=c']/[Bb]/)!>)! | %69
 ([Bb]3/4[cc']/8[dd']/8) [ee']/[gg']/!<(! !wedge![A,B,]/4!wedge![DF]/4!wedge![AB]/4!wedge![df]/4 !wedge![df]/4!wedge![AB]/4!wedge![DF]/4!wedge![A,B,]/4!<)! | %70
 z/4 [EG]/4B/4[eg]/4 !wedge![Gb]/!wedge![Be']/!f! !>!!wedge!A,/!wedge![cac']/ !>!!wedge!B,/!wedge![egbe']/ | %71
 !>!!wedge!C/!wedge![eac'e']/ !>!!wedge!=C/!wedge![f^ae'f']/ !>!!wedge!B,/!wedge![gbe'g']/ !>!!wedge!B,/!wedge![=abd'f'b']/ | %72
 !wedge!!^![G,B,E]!8va(!!wedge!!^![e'g'b'e'']!8va)!!f! E/4[GBe]/4e/4[gbe']/4 [gbe']/4e/4[GBe]/4E/4 | %73
 E/4[A=ce]/4e/4[a=c'e']/4 [ac'e']/4e/4[Ace]/4E/4 E/4[=G^Ae]/4e/4[=g^ae']/4 [gae']/4e/4[GAe]/4E/4 | %74
!<(! E/4[^GBe]/4e/4[gbe']/4!8va(! e'/4[g'b'e'']/4[g'b'e'']/4e'/4!<)! [c'e']/4!<(![ef]/4[ef]/4[c'e']/4 [c'e']/4[a'c'']/4[a'c'']/4[c'e']/4!8va)!!<)! | %75
 [gb]/4[Be]/4[Be]/4[gb]/4!8va(! b/4[e'g'b']/4[e'g'b']/4b/4!8va)! [db]/4[Bf]/4[Bf]/4[db]/4!8va(! b/4[d'f'b']/4[d'f'b']/4b/4!8va)! | %76
[I:staff +1] !arpeggio![E,G,B,E]/4[I:staff -1][B,EG]/4[EGB]/4[GBe]/4!8va(! !wedge![be'g']/!wedge![g'b'e'']/!8va)! !>![Ee]3/2{/[=G=g]}[=F=f]/ | %77
 [Ee]>[Ee] [E=G^Ae]/[ee']/[dd']/[^cc']/ | %78
 !wedge![B^gb][K:treble]!8va(! (3!arpeggio![gb']/!arpeggio![fa']/!arpeggio![eg']/ (3!arpeggio![ac'']/!arpeggio![gb']/!arpeggio![fa']/(3!arpeggio![eg']/!arpeggio![df']/!arpeggio![ce']/!8va)! | %79
 !wedge![Bgb] !arpeggio!!^![g-b-e'g'-]([gbd'g']/[aa']/[cc']/[dd']/) | %80
 !wedge![ege']/!<(! E/4E/4E/4E/4{/=G}=F/4E/4!<)! !^![A,=CE]/4[CEA]/4[I:staff +1][EA=c]/4[I:staff -1][ea=c'e']/4 [eac'e']/4[I:staff +1][EAc]/4[I:staff -1][CEA]/4[A,CE]/4 | %81
 !wedge![G,B,G]/!<(! E/4E/4E/4E/4{/=G}=F/4E/4!<)! !^![A,=CE]/4[CEA]/4[I:staff +1][EA=c]/4!8va(![I:staff -1]!>![a=c'e'a']/4 !>![ac'e'a']/4!8va)![I:staff +1][EAc]/4[I:staff -1][CEA]/4[A,CE]/4 | %82
 !wedge![G,B,G]/!<(! E/4E/4E/4E/4{/=G}=F/4E/4!<)! !wedge![A,=CE]/4[CEA]/4[I:staff +1][A=cea]/4!8va(![I:staff -1]!>![=c'e'a'=c'']/4 !>![c'e'a'c'']/4!8va)![I:staff +1][Acea]/4[I:staff -1][A,CE]/4[I:staff +1][E,,A,,=C,E,]/4 | %83
[I:staff -1] x4 | x4 | %85
 x[K:bass][K:treble] x[K:bass][K:treble]!<(! x/[K:bass] x/[K:treble]!<)!!>(! x/[K:bass] x/!>)! | %86
 x/ x[K:treble][K:bass] x/[K:treble] x/[K:bass] x/[K:treble] x/[K:bass] x/[K:treble] | %87
 x[K:bass][K:treble] x[K:bass][K:treble] x[K:bass][K:treble] x[K:bass] | %88
[I:staff +1] [E,,G,,]/4[G,,B,,]/4[I:staff -1][B,,E,]/4[E,G,]/4[I:staff +1] [G,B,]/4[I:staff -1][K:treble][B,E]/4[EG]/4[GB]/4 !wedge!B,/4!wedge![DA]/4!wedge!B/4!wedge![da]/4!wedge!b/4!wedge![da]/4!wedge!B/4!wedge![DA]/4 | %89
!<(! !wedge!B,/4!wedge![EG]/4!wedge!B/4!wedge![eg]/4!<)!b/!8va(! (!^![gg']/-"_subito" [gg']/[aa']/[cc']/[dd']/) | %90
!ff! !wedge![e=ge']!wedge![e'=g'c''e'']!8va)! z2 | %91
[Q:1/4=50]"^Maetoso." z2"_marcatissimo" [=CE]!8va(![e'=g'=c''e'']!8va)! | %92
 [=C=F]!8va(![=f'a'=c''=f'']!8va)![I:staff +1] [^D,^F,B,]!8va(![I:staff -1][bd'^f'b']!8va)! | %93
[I:staff +1] [E,G,B,][I:staff -1] z/ [gbe'g']/!wedge![gbe'g'] z |] %94
V:2
 .[E,G,]/4.[G,B,]/4.[B,E]/4[I:staff -1].[EG]/4 .[EG]/4[I:staff +1].[B,E]/4.[G,B,]/4.[E,G,]/4 | %1
 .[B,,F,]/4.[F,A,]/4.[B,D]/4[I:staff -1].[DA]/4 .[DA]/4[I:staff +1].[B,D]/4.[F,A,]/4.[B,,F,]/4 .[E,G,]/4.[G,B,]/4.[B,E]/4[I:staff -1].[EG]/4 .[EG]/4[I:staff +1].[B,E]/4.[G,B,]/4.[E,G,]/4 | %2
 .[B,,F,]/4.[F,B,]/4.B,/4[I:staff -1].[FB]/4 .[FB]/4[I:staff +1].B,/4.[F,B,]/4.[B,,F,]/4 .[E,G,]/4.[G,B,]/4.[B,E]/4[I:staff -1].[EG]/4 .[EG]/4[I:staff +1].[B,E]/4.[G,B,]/4.[E,G,]/4 | %3
 .[B,,F,]/4.[F,A,]/4.[B,D]/4[I:staff -1].[DA]/4 .[DA]/4[I:staff +1].[B,D]/4.[F,A,]/4.[B,,F,]/4 .[E,G,]/4.[G,B,]/4.[B,E]/4[I:staff -1].[EG]/4 .[EG]/4[I:staff +1].[B,E]/4.[G,B,]/4.[E,G,]/4 | %4
 .[B,,F,]/4.[F,B,]/4.B,/4[I:staff -1].[FB]/4 .[FB]/4[I:staff +1].B,/4.[F,B,]/4.[B,,F,]/4!ped! [E,,B,,]/4[=D,E,]/4[E,B,]/4[=DE]/4 [DE]/4[E,B,]/4[D,E,]/4[E,,B,,]/4!ped-up! | %5
!ped! [A,,C,]/4[E,A,]/4[A,C]/4[I:staff -1][EA]/4!wedge![Ac]/!wedge![ce]/!ped-up!!ped![I:staff +1] [F,,C,]/4[E,F,]/4[F,C]/4[EF]/4 [EF]/4[F,C]/4[E,F,]/4[F,,C,]/4!ped-up! | %6
!ped! [B,,D,]/4[F,B,]/4[B,D]/4[I:staff -1][FB]/4!wedge![Bd]/!wedge![df]/!ped-up![I:staff +1] [D,B,]/4[F,D]/4[I:staff -1][DB]/4[Fd]/4 [Fd]/4[DB]/4[I:staff +1][F,D]/4[D,B,]/4 | %7
 [E,B,]/4[G,E]/4[I:staff -1][EB]/4[Ge]/4 [Ge]/4[EB]/4[I:staff +1][G,E]/4[E,B,]/4 [F,D]/4[B,F]/4[I:staff -1][Fd]/4[Bf]/4 [Bf]/4[Fd]/4[I:staff +1][B,F]/4[F,D]/4 | %8
 [G,E]/4[B,G]/4[I:staff -1][Ge]/4[Bg]/4 [Bg]/4[Ge]/4[I:staff +1][B,G]/4[G,E]/4 [A,E]/4[CA]/4[I:staff -1][Ae]/4[ca]/4 [ca]/4[Ae]/4[I:staff +1][CA]/4[A,E]/4 | %9
[K:treble] [CE]/4[^A,=G]/4[ce]/4[^A=g]/4 [Ag]/4[ce]/4[A,G]/4[CE]/4 [EG]/4[CA]/4[eg]/4[c^a]/4 [ca]/4[eg]/4[CA]/4[EG]/4 | %10
 [CE]/4[^A,=G]/4[ce]/4[^A=g]/4 [Ag]/4[ce]/4[A,G]/4[CE]/4!>(! [A,C]/4[=G,E]/4[Ac]/4[Ge]/4 [Ge]/4[Ac]/4[G,E]/4[A,C]/4 | %11
[K:bass] [=G,^A,]/4[E,C]/4[K:treble][=G^A]/4[Ec]/4 [Ec]/4[GA]/4[K:bass][E,C]/4[G,A,]/4 [E,G,]/4[C,A,]/4[K:treble][EG]/4[CA]/4 [CA]/4[EG]/4[K:bass][C,A,]/4[E,G,]/4!>)! | %12
 [D,F,]/4B,/4[K:treble][DF]/4B/4!wedge![Bd]/!wedge![df]/[K:bass]!ped! !wedge!A,,/4!wedge![D,F,]/4!wedge!B,/4!wedge![DF]/4 !wedge![DF]/4!wedge!B,/4!wedge![D,F,]/4!wedge!A,,/4!ped-up! | %13
!ped! G,,/4[E,G,]/4B,/4[K:treble][EG]/4 !wedge![GB]/!wedge![Be]/!ped-up!!ped! z/[K:bass] (F/!>!=C/B,/)!ped-up! | %14
!ped! (B,3/4C/8D/8) !wedge!E/!wedge!G/!ped-up!"^marcato"!ped! !>!!wedge![A,,,A,,]/!wedge![E,A,C]/!ped-up!!ped! !>!!wedge![B,,,B,,]/!wedge![G,B,E]/!ped-up! | %15
!ped! !>!!wedge![C,,C,]/!wedge![A,CE]/!ped-up!!ped! !>!!wedge![=C,,=C,]/!wedge![F,^A,EF]/!ped-up!!ped! !>!!wedge![B,,,B,,]/!wedge![G,B,EG]/!ped-up!!ped! !>!!wedge![B,,,B,,]/!wedge![B,DFB]/!ped-up! | %16
!ped! !wedge!!^![E,,G,,B,,E,][K:treble]!wedge!!^![EGBe]!ped-up![K:bass]"^ben marcato la melodia" (B,,3/2{/=D,}=C,/) | %17
 B,,>B,, (B,,/=G,/F,/E,/ | %18
 ^D,/!>(!!>!=C,/B,,/) z/"^la melodia sempre forte" (B,,3/2!>)!{/=D,}C,/) | %19
 B,,>B,,!>(! !tenuto!B,,/[=G,B,]/[F,A,]/[E,G,]/ | [^D,F,]2!>)! !arpeggio![=D,F,]3/2{/A,}=G,/ | %21
 F,>F,!<(! F,/[=CE]/!arpeggio![B,=D]/[A,C]/!<)! | %22
!>(! !>![=D,B,]/[^A,,F,]/!>![=C,A,]/!>)![B,,=G,]/!ped! G,3/2{/B,}A,/!ped-up! | %23
!ped! !arpeggio![=F,=G,]3/2{/B,}A,/!ped-up! !arpeggio![F,G,]/{/B,}A,/ G,/{/B,}A,/ | %24
 =G,/=C/ A,/{/^C}B,/ A,/=D/ B,/{/D}=C/ | B,/E/ (=D/{/F}E/) (D/{/F}E/) (D/{/F}E/) | %26
 =D/ !^!=G!^!G/-!ped! G/4 x3/2 !>!^C,,/4 | %27
(3!>!!wedge![=D,,=D,]/!ped-up! !wedge![D,,B,,]/!wedge![D,,=C,]/(3!wedge![D,,D,]/!wedge![D,F,]/!wedge![D,=G,]/(3!wedge![D,A,]/!wedge![D,B,]/!wedge![D,=C]/(3!wedge![D,=D]/!wedge![D,E]/!wedge![D,F]/ | %28
!p!!ped! !arpeggio![=G,,B,,]/4"_arpeggiando                       simile"!arpeggio![=D,=G,]/4!arpeggio![G,B,]/4!arpeggio![=D=G]/4 !arpeggio![DG]/4!arpeggio![G,B,]/4!arpeggio![D,G,]/4!arpeggio![G,,B,,]/4!ped-up!!ped! !arpeggio![G,,=C,]/4!arpeggio![_E,F,]/4!arpeggio![G,=C]/4!arpeggio![_EF]/4 !arpeggio![EF]/4!arpeggio![G,C]/4!arpeggio![E,F,]/4!arpeggio![G,,C,]/4!ped-up! | %29
 !arpeggio!!wedge![=G,,B,,=G,]/ z/ !^!=D- D/(D/{DF}E/D/) | %30
!ped! !arpeggio![=G,,B,,]/4!arpeggio![=D,=G,]/4!arpeggio![G,B,]/4!arpeggio![=D=G]/4 !arpeggio![DG]/4!arpeggio![G,B,]/4!arpeggio![D,G,]/4!arpeggio![G,,B,,]/4!ped-up!!ped! !arpeggio![G,,=C,]/4!arpeggio![_E,F,]/4!arpeggio![G,=C]/4!arpeggio![_EF]/4 !arpeggio![EF]/4!arpeggio![G,C]/4!arpeggio![E,F,]/4!arpeggio![G,,C,]/4!ped-up! | %31
 !arpeggio!!wedge![=G,,B,,=G,]/ z/ !^!=D- D/(D/{DF}E/D/) | %32
!ped! (!arpeggio![=G,,B,,]/4!arpeggio![=D,=G,]/4!arpeggio![G,B,]/4!arpeggio![=D=G]/4 !arpeggio![DG]/4!arpeggio![G,B,]/4!arpeggio![D,G,]/4!arpeggio![G,,B,,]/4)!ped-up!!ped! (!arpeggio![G,,_B,,]/4!arpeggio![D,G,]/4!arpeggio![G,_B,]/4!arpeggio![DG]/4 !arpeggio![DG]/4!arpeggio![G,B,]/4!arpeggio![D,G,]/4!arpeggio![G,,B,,]/4)!ped-up! | %33
 !arpeggio!!wedge![=G,,_B,,_D,=G,]/ z/ !^!_E- E/(E/{E=G}=F/E/) | %34
!ped! (!arpeggio![_A,,=C,]/4!arpeggio![_E,_A,]/4!arpeggio![A,=C]/4!arpeggio![_E_A]/4 !arpeggio![EA]/4!arpeggio![A,C]/4!arpeggio![E,A,]/4!arpeggio![A,,C,]/4)!ped-up!!ped! (!arpeggio![A,,_C,]/4!arpeggio![E,A,]/4!arpeggio![A,_C]/4!arpeggio![EA]/4 !arpeggio![EA]/4!arpeggio![A,_C]/4!arpeggio![E,A,]/4!arpeggio![A,,_C,]/4)!ped-up! | %35
 !arpeggio!!wedge![^G,,B,,=D,^G,]/ z/ !^!E- (6:4:6E/[K:treble]E/{^G}F/E/=d/G/ | %36
[K:bass]!ped! (!arpeggio![A,,^C,]/4!arpeggio![E,A,]/4!arpeggio![A,^C]/4!arpeggio![EA]/4 !arpeggio![EA]/4!arpeggio![A,C]/4!arpeggio![E,A,]/4!arpeggio![A,,C,]/4)!ped-up!!ped! (!arpeggio![A,,=C,]/4!arpeggio![E,A,]/4!arpeggio![A,=C]/4!arpeggio![EA]/4 !arpeggio![EA]/4!arpeggio![A,C]/4!arpeggio![E,A,]/4!arpeggio![A,,C,]/4)!ped-up! | %37
 !arpeggio!!wedge![A,,=C,_E,A,]/ z/ !^!=F- (6:4:6F/[K:treble]F/{A}=G/F/=f/F/ | %38
[K:bass]"_sempre arpeggiando"!ped! !arpeggio![_B,,=D,]/4!arpeggio![=F,_B,]/4!arpeggio![B,=D]/4!arpeggio![=F_B]/4 !arpeggio![FB]/4!arpeggio![B,D]/4!arpeggio![F,B,]/4!arpeggio![B,,D,]/4!ped-up!!ped! !arpeggio![B,,_D,]/4!arpeggio![F,B,]/4!arpeggio![B,_D]/4!arpeggio![FB]/4 !arpeggio![FB]/4!arpeggio![B,D]/4!arpeggio![F,B,]/4!arpeggio![B,,D,]/4!ped-up! | %39
!ped! !arpeggio![_B,,_D,]/4!arpeggio![_G,_B,]/4!arpeggio![B,_D]/4!arpeggio![_G_B]/4 !arpeggio![GB]/4!arpeggio![B,D]/4!arpeggio![G,B,]/4!arpeggio![B,,D,]/4 !arpeggio![^A,,^C,]/4!arpeggio![F,^A,]/4[K:treble]!arpeggio![^CE]/4!arpeggio![F^c]/4 !arpeggio![Fc]/4!arpeggio![CE]/4[K:bass]!arpeggio![F,A,]/4!arpeggio![A,,C,]/4!ped-up! | %40
!ped! !arpeggio![B,,^D,]/4!arpeggio![F,B,]/4[K:treble]!arpeggio![B,^D]/4!arpeggio![FB]/4 !arpeggio![FB]/4!arpeggio![B,D]/4[K:bass]!arpeggio![F,B,]/4!arpeggio![B,,D,]/4!ped-up!!ped! !arpeggio![B,,=D,]/4!arpeggio![F,B,]/4[K:treble]!arpeggio![B,=D]/4!arpeggio![FB]/4 !arpeggio![FB]/4!arpeggio![B,D]/4[K:bass]!arpeggio![F,B,]/4!arpeggio![B,,D,]/4!ped-up! | %41
!ped! !arpeggio![B,,=D,]/4!arpeggio![=G,B,]/4[K:treble]!arpeggio![B,=D]/4!arpeggio![=GB]/4 !arpeggio![GB]/4!arpeggio![B,D]/4[K:bass]!arpeggio![G,B,]/4!arpeggio![B,,D,]/4 !arpeggio![B,,D,]/4!arpeggio![G,B,]/4[K:treble]!arpeggio![D=F]/4!arpeggio![G=d]/4 !arpeggio![Gd]/4!arpeggio![DF]/4[K:bass]!arpeggio![G,B,]/4!arpeggio![B,,D,]/4!ped-up! | %42
!ped! !arpeggio![=C,E,]/4!arpeggio![=G,=C]/4[K:treble]!arpeggio![CE]/4!arpeggio![=G=c]/4 !arpeggio![Gc]/4!arpeggio![CE]/4[K:bass]!arpeggio![G,C]/4!arpeggio![C,E,]/4!ped-up!!ped! !arpeggio![C,_E,]/4!arpeggio![G,C]/4[K:treble]!arpeggio![C_E]/4!arpeggio![Gc]/4 !arpeggio![Gc]/4!arpeggio![CE]/4[K:bass]!arpeggio![G,C]/4!arpeggio![C,E,]/4!ped-up! | %43
!ped! !arpeggio![=C,_E,]/4!arpeggio![_A,=C]/4[K:treble]!arpeggio![C_E]/4!arpeggio![_A=c]/4 !arpeggio![Ac]/4!arpeggio![CE]/4[K:bass]!arpeggio![A,C]/4!arpeggio![C,E,]/4 !arpeggio![C,E,]/4!arpeggio![A,C]/4[K:treble]!arpeggio![CE]/4!arpeggio![Ac]/4 !arpeggio![Ac]/4!arpeggio![CE]/4[K:bass]!arpeggio![A,C]/4!arpeggio![C,E,]/4!ped-up! | %44
 !arpeggio![=C,,_A,,][K:treble] (3[_E_G_e]/[EGe]/[_D=F_d]/(3[=CE=c]/[CEc]/[_B,D_B]/[K:bass](3[_A,C_A]/[A,CA]/[_G,_B,_G]/ | %45
(3[=F,_A,=F]/[F,A,F]/[E,=G,E]/(3[_E,_G,_E]/[E,G,E]/[_D,F,_D]/(3[=C,E,=C]/[C,E,C]/[_B,,D,_B,]/(3[_A,,C,A,]/[A,,C,A,]/[_G,,_B,,_G,]/ | %46
(3[=F,,_A,,=F,]/[F,,A,,F,]/[E,,=G,,E,]/(3!^![_E,,_G,,_E,]/[E,,G,,E,]/[=D,,F,,=D,]/ !wedge!!^![_D,,_F,,_D,]/!wedge!!^![=C,,E,,=C,]/ z/ !wedge!!^![=B,,,=D,,=B,,]/ | %47
 z/ !wedge!!^![_B,,,_D,,_B,,]/ z/ !wedge!!^![__B,,,D,,__B,,]/!ped! !wedge!!^![_A,,,_E,,_A,,] !arpeggio!!wedge!!^![A,,_E,=C_A]!ped-up! | %48
 z2!ped! !arpeggio![_D,,_A,,_D,]/[I:staff -1] [=F_A_d]/4[I:staff +1] x/4 z!ped-up! | %49
!ped! !arpeggio![_A,,,_A,,_E,]/[I:staff -1] [_G_A=c]/4[I:staff +1] x/4 z!ped-up!!ped! !arpeggio![_D,,A,,_D,]/[I:staff -1] [=FA_d]/4[I:staff +1] x/4 z!ped-up! | %50
!ped! !arpeggio![_A,,,_A,,=C,]/[I:staff -1] [_E_A=c]/4[I:staff +1] x/4 z!ped-up!!ped! !arpeggio![_D,,A,,_D,]/[I:staff -1] [_FA_d]/4[I:staff +1] x/4 z!ped-up! | %51
!ped! !arpeggio![_A,,,_A,,_E,]/[I:staff -1] [_G_A=c]/4[I:staff +1] x/4 z!ped-up!!ped! !arpeggio![_D,,A,,_D,]/[I:staff -1] [_FA_d]/4[I:staff +1] x/4 z!ped-up! | %52
!ped! !arpeggio![_A,,,_A,,=C,]/[I:staff -1] [_E_A=c]/4[I:staff +1] x/4 z!ped-up!!ped! !arpeggio![C,,G,,^C,]/[I:staff -1] [=EG^c]/4[I:staff +1] x/4 z!ped-up! | %53
!ped! !arpeggio![B,,,E,,G,,=D,]/"_poco     a    poco      tre   corde"[I:staff -1] [EG=d]/4[I:staff +1] x/4 z!ped-up!!ped! !arpeggio![A,,,E,,A,,C,]/[I:staff -1] [EAc]/4[I:staff +1] x/4 z!ped-up! | %54
!ped! !arpeggio![^A,,,=G,,C,]/[I:staff -1] [C=G^A]/4[I:staff +1] x/4 x/ [G,,=G,]/4[A,,,^A,,]/4!ped-up!!ped! !>!!wedge![B,,,B,,]/!wedge![F,B,D]/!ped-up!!ped! !>!!wedge![=A,,,=A,,]/!wedge![F,B,D]/!ped-up! | %55
!ped! !>!!wedge![G,,,G,,]/!wedge![G,B,E]/!ped-up!!ped! !>!!wedge![A,,,A,,]/!wedge![A,CE]/!ped-up!!ped! !>!!wedge![B,,,B,,]/!wedge![B,EG]/!ped-up!!ped! !>!!wedge![B,,,B,,]/!wedge![B,DF]/!ped-up! | %56
 z2!ped! !^![E,,G,,B,,E,]/4[I:staff -1][G,B,EG]/4[I:staff +1][K:treble][B,EGB]/4[I:staff -1]!>![egbe']/4 !>![egbe']/4[I:staff +1][B,EGB]/4[K:bass][I:staff -1][G,B,EG]/4[I:staff +1][E,,G,,B,,E,]/4!ped-up! | %57
!ped! !^![B,,,D,,F,,B,,]/4[I:staff -1][A,B,DF]/4[I:staff +1][K:treble][B,DFB]/4[I:staff -1]!>![dabf']/4 !>![dabf']/4[I:staff +1][B,DFB]/4[K:bass][I:staff -1][F,B,DF]/4[I:staff +1][B,,,D,,F,,B,,]/4!ped-up!!ped! !^![E,,G,,B,,E,]/4[I:staff -1][G,B,EG]/4[I:staff +1][K:treble][B,EGB]/4[I:staff -1]!>![egbe']/4 !>![egbe']/4[I:staff +1][B,EGB]/4[K:bass][I:staff -1][G,B,EG]/4[I:staff +1][E,,G,,B,,E,]/4!ped-up! | %58
!ped! !^![B,,,D,,F,,B,,]/4[I:staff -1][F,B,DF]/4[I:staff +1][K:treble][B,DFB]/4!8va(![I:staff -1]!>![bd'f'b']/4 !>![bd'f'b']/4!8va)![I:staff +1][B,DFB]/4[K:bass][I:staff -1][F,B,DF]/4[I:staff +1][B,,,D,,F,,B,,]/4!ped-up!!ped! !^![E,,G,,B,,E,]/4[I:staff -1][G,B,EG]/4[I:staff +1][K:treble][B,EGB]/4[I:staff -1]!>![egbe']/4 !>![egbe']/4[I:staff +1][B,EGB]/4[K:bass][I:staff -1][G,B,EG]/4[I:staff +1][E,,G,,B,,E,]/4!ped-up! | %59
!ped! !^![B,,,D,,F,,B,,]/4[I:staff -1][A,B,DF]/4[I:staff +1][K:treble][B,DFB]/4[I:staff -1]!>![dabf']/4 !>![dabf']/4[I:staff +1][B,DFB]/4[K:bass][I:staff -1][F,B,DF]/4[I:staff +1][B,,,D,,F,,B,,]/4!ped-up!!ped! !^![E,,G,,B,,E,]/4[I:staff -1][G,B,EG]/4[I:staff +1][K:treble][B,EGB]/4[I:staff -1]!>![egbe']/4 !>![egbe']/4[I:staff +1][B,EGB]/4[K:bass][I:staff -1][G,B,EG]/4[I:staff +1][E,,G,,B,,E,]/4!ped-up! | %60
!ped! !^![B,,,D,,F,,B,,]/4[I:staff -1][F,B,DF]/4[I:staff +1][K:treble][B,DFB]/4!8va(![I:staff -1]!>![bd'f'b']/4 !>![bd'f'b']/4!8va)![I:staff +1][B,DFB]/4[K:bass][I:staff -1][F,B,DF]/4[I:staff +1][B,,,D,,F,,B,,]/4!ped-up!!ped! !^![E,,G,,B,,=D,E,]/4[I:staff -1][G,B,EG]/4[I:staff +1][K:treble][B,=DGB]/4[I:staff -1]!>![gbe'g']/4 !>![gbe'g']/4[I:staff +1][B,DGB]/4[K:bass][I:staff -1][G,B,EG]/4[I:staff +1][E,,G,,B,,D,E,]/4!ped-up! | %61
!ped! x/[K:treble] [A,CE]/4[CEA]/4 [EAc]/[Ace]/!ped-up![K:bass]!ped! !^![F,,^A,,C,E,F,]/4[I:staff -1][^A,CF^A]/4[I:staff +1][K:treble][CEAc]/4[I:staff -1]!>![^ac'f'^a']/4 !>![ac'f'a']/4[I:staff +1][CEAc]/4[K:bass][I:staff -1][A,CFA]/4[I:staff +1][F,,A,,C,E,F,]/4!ped-up! | %62
!ped! x/[K:treble] [B,DF]/4[DFB]/4 !wedge![FBd]/!wedge![Bdf]/!ped-up![K:bass]!ped! !^![D,,F,,B,,D,]/4[I:staff -1][F,B,DF]/4[I:staff +1][K:treble][B,DFB]/4[I:staff -1]!>![dfbd']/4 !>![dfbd']/4[I:staff +1][B,DFB]/4[K:bass][I:staff -1][F,B,DF]/4[I:staff +1][D,,F,,B,,D,]/4!ped-up! | %63
!ped! !^![E,,G,,B,,E,]/4[I:staff -1][G,B,EG]/4[I:staff +1][K:treble][B,EGB]/4[I:staff -1]!>![egbe']/4 !>![egbe']/4[I:staff +1][B,EGB]/4[K:bass][I:staff -1][G,B,EG]/4[I:staff +1][E,,G,,B,,E,]/4!ped-up!!ped! !^![F,,B,,D,F,]/4[I:staff -1][B,DFB]/4[I:staff +1][K:treble][DFBd]/4[I:staff -1]!>![fbd'f']/4 !>![fbd'f']/4[I:staff +1][DFBd]/4[K:bass][I:staff -1][B,DFB]/4[I:staff +1][F,,B,,D,F,]/4!ped-up! | %64
!ped! !^![G,,B,,E,G,]/4[I:staff -1][B,EGB]/4[I:staff +1][K:treble][EGBe]/4[I:staff -1]!>![gbe'g']/4 !>![gbe'g']/4[I:staff +1][EGBe]/4[K:bass][I:staff -1][B,EGB]/4[I:staff +1][G,,B,,E,G,]/4!ped-up!!ped! !^![A,,C,E,A,]/4[I:staff -1][CEAc]/4[I:staff +1][K:treble][EAce]/4[I:staff -1]!>![ac'e'a']/4 !>![ac'e'a']/4[I:staff +1][EAce]/4[K:bass][I:staff -1][CEAc]/4[I:staff +1][A,,C,E,A,]/4!ped-up! | %65
!ped! !^![^A,,C,=G,^A,]/4[I:staff -1][CE=Gc]/4[I:staff +1][K:treble][E=Gce]/4!8va(![I:staff -1]!>![c'e'=g'c'']/4 !>![c'e'g'c'']/4!8va)![I:staff +1][EGce]/4[K:bass][I:staff -1][CEGc]/4[I:staff +1][A,,C,G,A,]/4!ped-up!!ped! !^![C,E,A,C]/4[I:staff -1][EG^Ae]/4[I:staff +1][K:treble][=G^Ae=g]/4!8va(![I:staff -1]!>![e'g'^a'e'']/4 !>![e'g'a'e'']/4!8va)![I:staff +1][GAeg]/4[K:bass][I:staff -1][EGAe]/4[I:staff +1][C,E,A,C]/4!ped-up! | %66
!ped! !^![^A,,C,=G,^A,]/4[I:staff -1][CE=Gc]/4[I:staff +1][K:treble][E=Gce]/4!8va(![I:staff -1]!>![c'e'=g'c'']/4 !>![c'e'g'c'']/4!8va)![I:staff +1][EGce]/4[K:bass][I:staff -1][CEGc]/4[I:staff +1][A,,C,G,A,]/4!ped-up!!ped! !^![=G,,^A,,E,=G,]/4[I:staff -1][^A,CE^A]/4[I:staff +1][K:treble][CEAc]/4!8va(![I:staff -1]!>![^ac'e'^a']/4 !>![ac'e'a']/4!8va)![I:staff +1][CEAc]/4[K:bass][I:staff -1][A,CEA]/4[I:staff +1][G,,A,,E,G,]/4!ped-up! | %67
!ped! !^![E,,=G,,C,E,]/4[I:staff -1][=G,^A,C=G]/4[I:staff +1][K:treble][A,CG^A]/4[I:staff -1]!>![=g^ac'=g']/4 !>![gac'g']/4[I:staff +1][A,CGA]/4[K:bass][I:staff -1][G,A,CG]/4[I:staff +1][E,,G,,C,E,]/4!ped-up!!ped! !^![C,,E,,^A,,C,]/4[I:staff -1][E,G,A,E]/4[I:staff +1][K:treble][=G,^A,E=G]/4[I:staff -1]!>![egae']/4 !>![egae']/4[I:staff +1][G,A,EG]/4[K:bass][I:staff -1][E,G,A,E]/4[I:staff +1][C,,E,,A,,C,]/4!ped-up! | %68
 !^![B,,,D,,F,,B,,]/4[I:staff -1][D,,F,,B,,D,]/4[I:staff +1][F,B,DF]/4[I:staff -1][Bdfb]/4 [dfbd']/[fbd'f']/!ped![I:staff +1] !wedge!A,,/4!wedge![D,F,]/4!wedge!B,/4!wedge![DF]/4 !wedge![DF]/4!wedge!B,/4!wedge![D,F,]/4!wedge!A,,/4!ped-up! | %69
!ped! G,,/4[E,G,]/4B,/4[K:treble][EG]/4!wedge![GB]/!wedge![Be]/!ped-up![K:bass]!ped! z/!>(! F/=C/B,/!ped-up!!>)! | %70
!ped! B,3/4C/8D/8 !wedge!E/!wedge!G/!ped-up!!ped! !>!!wedge![A,,,A,,]/!wedge![E,A,C]/!ped-up!!ped! !>!!wedge![B,,,B,,]/!wedge![G,B,E]/!ped-up! | %71
!ped! !>!!wedge![C,,C,]/!wedge![A,CE]/!ped-up!!ped! !>!!wedge![=C,,=C,]/!wedge![F,^A,EF]/!ped-up!!ped! !>!!wedge![B,,,B,,]/!wedge![G,B,EG]/!ped-up!!ped! !>!!wedge![B,,,B,,]/!wedge![B,DFB]/!ped-up! | %72
!ped! !wedge!!^![E,,G,,B,,E,][K:treble]!wedge!!^![EGBe]!ped-up![K:bass]"^marcato" (!>![=D,E,]3/2{/=G,}=F,/) | %73
 E,>E, E,/[E,E]/[D,D]/[C,C]/ | %74
 !arpeggio![B,,B,][K:treble]"^energico" (3!arpeggio![G,B]/!arpeggio![F,A]/!arpeggio![E,G]/ (3!arpeggio![A,c]/!arpeggio![G,B]/!arpeggio![F,A]/[K:bass](3!arpeggio![E,G]/!arpeggio![D,F]/!arpeggio![C,E]/ | %75
 x !^![G,-B,EG-]([G,G]/[A,A]/[C,C]/[D,D]/) | %76
 x3/4[K:treble] [G,B,E]/4!wedge![B,EG]/!wedge![GBe]/[K:bass]!ped! ([E,,G,,B,,]/4[=D,E,]/4[E,G,B,]/4[=DE]/4) ([DE]/4[E,G,B,]/4[D,E,]/4[E,,G,,B,,]/4)!ped-up! | %77
!ped! ([E,,A,,=C,]/4E,/4[E,A,=C]/4E/4) (E/4[E,A,C]/4E,/4[E,,A,,C,]/4)!ped-up!!ped! ([E,,^A,,^C,]/4E,/4[E,^A,^C]/4E/4) (E/4[E,A,C]/4E,/4[E,,A,,C,]/4)!ped-up! | %78
 ([E,,^G,,B,,]/4E,/4[E,G,B,]/4E/4) (3!arpeggio![E,,G,]/!arpeggio![F,,A,]/!arpeggio![G,,B,]/ (3!arpeggio![A,,C]/!arpeggio![B,,D]/!arpeggio![C,E]/(3!arpeggio![D,F]/!arpeggio![E,G]/!arpeggio![F,A]/ | %79
!ped! ([B,,E,G,]/4B,/4[B,EG]/4B/4) (B/4[B,EG]/4B,/4[B,,E,G,]/4)!ped-up!!ped! ([B,,F,A,]/4B,/4[B,FA]/4B/4) (B/4[B,FA]/4B,/4[B,,F,A,]/4)!ped-up! | %80
 !wedge![E,G,E]/ E,/4E,/4E,/4E,/4{/=G,}=F,/4E,/4!ped! !wedge![E,,A,,=C,E,]/[K:treble] x[K:bass] z/4 [E,,A,,C,E,]/4!ped-up! | %81
 !wedge![E,,G,,B,,E,]/ E,/4E,/4E,/4E,/4{/=G,}=F,/4E,/4!ped! !wedge![E,,A,,=C,E,]/[K:treble] x[K:bass] z/4 [E,,A,,C,E,]/4!ped-up! | %82
 !wedge![E,,G,,B,,E,]/ E,/4E,/4E,/4E,/4{/=G,}=F,/4E,/4!ped! !wedge![E,,A,,=C,E,]/[K:treble] x[K:bass] x/ | %83
 !wedge![E,,A,,=C,E,]/4[I:staff -1][A,=CEA]/4[I:staff +1][K:treble][=cea=c']/4!8va(![I:staff -1]!>![e'a'=c''e'']/4 !>![e'a'c''e'']/4!8va)![I:staff +1][ceac']/4[K:bass][I:staff -1][A,CEA]/4[I:staff +1][E,,A,,C,E,]/4!>(! !wedge![E,,A,,C,E,]/4[I:staff -1][A,CE]/4[I:staff +1][K:treble][Acea]/4!8va(![I:staff -1]!>![c'e'a'c'']/4 !>![c'e'a'c'']/4!8va)![I:staff +1][Acea]/4[K:bass][I:staff -1][A,CE]/4!>)![I:staff +1][E,,A,,C,E,]/4!ped-up! | %84
!ped!"^poco a poco dim." [E,,G,,B,,E,]/4[I:staff -1][G,B,]/4[I:staff +1][K:treble][EGB]/4[K:bass]!8va(![I:staff -1][be'g'b']/4!ped-up!!8va)!!ped![I:staff +1] !arpeggio![E,,D,F,]/4[I:staff -1]!>!B,/4[I:staff +1][K:treble][DFB]/4[K:bass]!8va(![I:staff -1][bd'f'b']/4!ped-up!!8va)!!ped![I:staff +1] !arpeggio![E,,C,E,]/4[I:staff -1]!>!A,/4[I:staff +1][K:treble][CEA]/4[K:bass]!8va(![I:staff -1][ac'e'a']/4!ped-up!!8va)!!ped![I:staff +1] !arpeggio![E,,B,,D,]/4[I:staff -1]!>!G,/4[I:staff +1][K:treble][B,DG]/4[K:bass]!8va(![I:staff -1][gbd'g']/4!ped-up!!8va)! | %85
!ped![I:staff +1] !arpeggio![E,,A,,C,]/4[I:staff -1]!>!F,/4[I:staff +1][A,CF]/4[I:staff -1][fac'f']/4!ped-up!!ped![I:staff +1] !arpeggio![E,,G,,B,,]/4[I:staff -1]!>!E,/4[I:staff +1][G,B,E]/4[I:staff -1][egbe']/4!ped-up!!ped![I:staff +1] !arpeggio![E,,F,,A,,=C,]/4[I:staff -1]!>!D,/4[I:staff +1][F,A,=C]/4[I:staff -1][dfd']/4 [df=c']/4[I:staff +1][F,A,C]/4[I:staff -1]D,/4[I:staff +1][E,,A,,C,]/4!ped-up! | %86
!ped!"^sempre più dim." [E,,G,,B,,]/4[I:staff -1]E,/4[I:staff +1][G,B,]/4[I:staff -1][Begb]/4!ped-up!!ped![I:staff +1] [E,,D,]/4[I:staff -1]F,/4[I:staff +1]!>!B,/4[I:staff -1][Bdfb]/4!ped-up!!ped![I:staff +1] [E,,C,]/4[I:staff -1]E,/4[I:staff +1]!>!A,/4[I:staff -1][Acea]/4!ped-up!!ped![I:staff +1] [E,,B,,]/4[I:staff -1]F,/4[I:staff +1]!>!G,/4[K:bass][I:staff -1][GBdg]/4!ped-up! | %87
!ped![I:staff +1] [E,,A,,]/4[I:staff -1]C,/4[I:staff +1]F,/4[I:staff -1][FAcf]/4!ped-up!!ped![I:staff +1] [E,,G,,]/4[I:staff -1]B,,/4[I:staff +1]E,/4[I:staff -1][EGBe]/4!ped-up!!<(!!ped![I:staff +1] [E,,F,,A,,]/4[I:staff -1]=C,/4[I:staff +1]D,/4!<)![I:staff -1][DFd]/4!>(! [DF=c]/4[I:staff +1]D,/4[I:staff -1]C,/4[I:staff +1][E,,F,,A,,]/4!ped-up!!>)! | %88
!ped! x2!ped-up!"^marcato"!ped! (B,,3/2{/=D,}=C,/)!ped-up! | %89
!ped! B,,>!^!G,!ped-up!!ped! !arpeggio![B,,,D,,]/4!arpeggio![F,,B,,]/4!arpeggio![B,,D,]/4!arpeggio![F,B,]/4 [A,B,]/4[B,,F,]/4[A,,B,,]/4[B,,,F,,]/4!ped-up! | %90
 [^A,,,E,,=G,,C,][K:treble][^A,E=Gc] z2 | %91
[K:bass] z2!ped! [_B,,,E,,=G,,=C,][K:treble][_B,E=G=c]!ped-up! | %92
!ped! [A,,,=F,,=C,][K:treble][A,=C=F=c]!ped-up![K:bass]!ped! [B,,,D,,^F,,B,,][K:treble][B,D^FAB]!ped-up! | %93
[K:bass]!ped! [E,,G,,B,,] z/ [E,G,B,G]/!wedge![E,G,B,G] z!ped-up! |] %94
V:3
 z2 | z4 | z4 | z4 | z4 | z4 | z4 | z4 | z4 | z4 | z4 | z4 | z4 | z4 | z4 | z4 | z4 | z4 | z4 | %19
 z4 | z4 | z4 | z4 | z4 | z4 | z4 | z4 | z4 | z4 | z4 | z4 | z4 | z4 | z4 | z4 | z4 | z4 | z4 | %38
 z4 | z4 | z4 | z4 | z4 | z4 | z4 | z4 | z4 | z4 | z4 | z4 | z4 | z4 | z4 | z4 | z4 | z4 | z4 | %57
 z4 | z4 | z4 | z4 | z4 | z4 | z4 | z4 | z4 | z4 | z4 | %68
 x !wedge!!^![D,F,B,D]/!wedge!!^![B,,D,F,B,]/ x2 | z4 | z4 | z4 | z4 | z4 | z4 | z4 | z4 | z4 | %78
 z4 | z4 | z4 | z4 | z4 | z4 | %84
[K:treble] x/ [EBg]/4 x/4 x/ [DBf]/4 x/4 x/ [CAe]/4 x/4 x/ [B,Gd]/4 x/4 | %85
 x/ [A,Fc]/4 x/4 x/ [G,EB]/4 x/4 x/ [A,DF=c]/4 x/ [A,DFc]/4 x/ | %86
 x/ [G,EB]/4 x/4 x/ !>![DFB]/4 x/4 x/ !>![CEA]/4 x/4 x/ !>![B,DG]/4 x/4 | %87
 x/ [A,CF]/4 x/4 x/ [G,B,E]/4 x/4 x/ [F,A,D]/4 x/ [F,A,D]/4 x/ | z4 | z4 | z4 | z4 | z4 | z4 |] %94
V:4
 x2 | x4 | x/[I:staff -1] F/4[I:staff +1] x/[I:staff -1] F/4[I:staff +1] x/ x2 | x4 | x4 | x4 | %6
 x4 | x4 | x4 |[K:treble] x4 | x4 |[K:bass] x/[K:treble] x[K:bass] x[K:treble] x[K:bass] x/ | %12
 x/[K:treble] x3/2[K:bass] x2 | x3/4[K:treble] x7/4[K:bass] x/ !arpeggio![A,,D,F,] | %14
 !arpeggio![G,,E,] x x2 | x4 | x[K:treble] x[K:bass] !arpeggio![E,,=G,,]/!arpeggio![E,,G,,]/ z | %17
 !arpeggio![B,,,^D,,F,,]/!arpeggio![B,,,D,,F,,]/ z !arpeggio![E,,=G,,B,,] z | %18
 [B,,,F,,] x !arpeggio![E,,=G,,]/!arpeggio![E,,G,,]/ z | %19
 !arpeggio![B,,,^D,,F,,]/!arpeggio![B,,,D,,F,,]/ z ([E,,=G,,B,,] z | %20
 z/ !>!=C,/B,,/F,,/) !arpeggio!B,,,/[B,,=D,]/ z/ z/ | %21
 !arpeggio![A,,=C,=D,]/!arpeggio![A,,C,D,]/ z =D,,!arpeggio![D,F,] | %22
 =G,, z !arpeggio![=F,,B,,=D,]/[F,,B,,D,]/ z | %23
 !arpeggio![=D,,=G,,B,,]/[D,,G,,B,,]/ z !arpeggio![B,,,G,,][=F,,B,,=D,] | %24
 !arpeggio![E,,=C,]/[E,=G,]/ [=G,,^C,E,] [F,,=D,]/[F,A,]/ [A,,^D,F,] | %25
 [=G,,E,]/[=G,B,]/ [=C,F,A,] [B,,G,][A,,F,=C] | %26
 [B,,=G,][=C,G,E] [^C,G,_B,]/4 !wedge!=G/4!wedge!_B/4!wedge!^C/4!wedge!E/4!wedge!G,/4!wedge!B,/4!>!C,/4 | %27
 x4 | x4 | x2 !arpeggio![=D,F,A,=C]/ z/ z | x4 | x2 !arpeggio![=D,F,A,=C]/ z/ z | x4 | %33
 x2 [_E,=G,_D]/ x3/2 | x4 | x2 !arpeggio![E,G,B,=D]/[K:treble] x3/2 |[K:bass] x4 | %37
 x2 !arpeggio![=F,A,=C_E]/[K:treble] x3/2 |[K:bass] x4 | x5/2[K:treble] x[K:bass] x/ | %40
 x/[K:treble] x[K:bass] x[K:treble] x[K:bass] x/ | %41
 x/[K:treble] x[K:bass] x[K:treble] x[K:bass] x/ | %42
 x/[K:treble] x[K:bass] x[K:treble] x[K:bass] x/ | %43
 x/[K:treble] x[K:bass] x[K:treble] x[K:bass] x/ | x[K:treble] x2[K:bass] x | x4 | x4 | x4 | x4 | %49
 x4 | x4 | x4 | x4 | x4 | x4 | x4 | x5/2[K:treble] x[K:bass] x/ | %57
 x/[K:treble] x[K:bass] x[K:treble] x[K:bass] x/ | %58
 x/[K:treble] x/4!8va(! x/!8va)! x/4[K:bass] x[K:treble] x[K:bass] x/ | %59
 x/[K:treble] x[K:bass] x[K:treble] x[K:bass] x/ | %60
 x/[K:treble] x/4!8va(! x/!8va)! x/4[K:bass] x[K:treble] x[K:bass] x/ | %61
 x/[K:treble] x3/2[K:bass] x/[K:treble] x[K:bass] x/ | %62
 x/[K:treble] x3/2[K:bass] x/[K:treble] x[K:bass] x/ | %63
 x/[K:treble] x[K:bass] x[K:treble] x[K:bass] x/ | %64
 x/[K:treble] x[K:bass] x[K:treble] x[K:bass] x/ | %65
 x/[K:treble] x/4!8va(! x/!8va)! x/4[K:bass] x[K:treble] x/4!8va(! x/!8va)! x/4[K:bass] x/ | %66
 x/[K:treble] x/4!8va(! x/!8va)! x/4[K:bass] x[K:treble] x/4!8va(! x/!8va)! x/4[K:bass] x/ | %67
 x/[K:treble] x[K:bass] x[K:treble] x[K:bass] x/ | x4 | %69
 x3/4[K:treble] x5/4[K:bass] x !arpeggio![A,,D,F,] | !arpeggio![G,,E,] x x2 | x4 | %72
 x[K:treble] x[K:bass] !arpeggio![E,,G,,B,,]/!arpeggio![E,,G,,B,,]/ z | %73
 !arpeggio![E,,A,,=C,]/!arpeggio![E,,A,,C,]/ z [E,,-=G,,^A,,^C,] x | %74
 !arpeggio![E,,B,,][K:treble] x2[K:bass] x | !arpeggio![B,,E,G,B,] x !arpeggio![B,,,D,,A,,B,,] x | %76
 x3/4[K:treble] x5/4[K:bass] x2 | x4 | x4 | x4 | x5/2[K:treble] x[K:bass] x/ | %81
 x5/2[K:treble] x[K:bass] x/ | x5/2[K:treble] x[K:bass] x/ | %83
 x/[K:treble] x/4!8va(! x/!8va)! x/4[K:bass] x[K:treble] x/4!8va(! x/!8va)! x/4[K:bass] x/ | %84
 x/[K:treble] x/4[K:bass]!8va(! x/4!8va)! x/[K:treble] x/4[K:bass]!8va(! x/4!8va)! x/[K:treble] x/4[K:bass]!8va(! x/4!8va)! x/[K:treble] x/4[K:bass]!8va(! x/4!8va)! | %85
 x4 | x15/4[K:bass] x/4 | x4 | x2 !arpeggio![F,,=A,,]/!arpeggio![F,,A,,]/ z | %89
 !arpeggio![E,,G,,]/!arpeggio![E,,G,,]/ z x2 | x[K:treble] x3 |[K:bass] x2 [E,=G,][K:treble] x | %92
 [=F,A,][K:treble] x[K:bass] x[K:treble] x |[K:bass] x4 |] %94
V:5
 x2 | x4 | x4 | x4 | x4 | x4 | x4 | x4 | x4 | x/!8va(! x!8va)! x!8va(! x!8va)! x/ | %10
 x/!8va(! x!8va)! x!8va(! x!8va)! x/ | x/!8va(! x!8va)! x5/2 | x4 | x4 | x4 | x4 | %16
 x!8va(! x!8va)! x2 | x4 | x4 | x4 | x4 | x4 | x5/2!8va(! x!8va)! x/ | %23
 x/!8va(! x!8va)! x!8va(! x!8va)! x/ | x4 | x4 | x/!8va(! x/!8va)! x/!8va(! x/!8va)! x2 | %27
 x/3!8va(! x8/3!8va)! x | x !arpeggio![B=g]/[=db]/ [Af]/[=ca]/ [A_ef]/[ca]/ | %29
 !arpeggio![B=g]/!8va(! x/ x x2!8va)! | x !arpeggio![B=g]/[=db]/ [Af]/[=ca]/ [A_ef]/[ca]/ | %31
 !arpeggio![B=g]/!8va(! x/ x x2!8va)! | x !arpeggio![B=g]/[=db]/ [_Bg]/[d_b]/ [Bg]/[db]/ | %33
 =f/_e/4 x/4!8va(! x3!8va)! | x/ z/ !arpeggio![=c_a]/[_e=c']/ [_ca]/[e_c']/ [ca]/[ec']/ | %35
 !>!f/!>!e/4 x/4!8va(! x3!8va)! | %36
 x/ z/ !arpeggio![ca]/[ec']/ (6:4:6[=ca]/[e=c']/[ca]/ [ec']/[ca]/[ec']/ | %37
 !>!=g/!>!=f/4 x/4!8va(! x3!8va)! | x[K:bass] [_B,,,=D,,][B,,,_D,,][B,,,D,,] | %39
 [_B,,,_D,,][K:treble]!8va(! x3!8va)! | x[K:bass] [B,,,^D,,][B,,,=D,,][B,,,D,,] | %41
 [B,,,=D,,][K:treble]!8va(! x3!8va)! |[K:treble] x[K:bass] [=C,,E,,][C,,_E,,][C,,E,,] | %43
 [=C,,_E,,][K:treble]!8va(! x3 | x3!8va)! x | x4 | x4 | x3!8va(! x!8va)! | x4 | %49
[I:staff +1] _G,/4_A,/4[I:staff -1] x[I:staff +1] A,/4G,/4[I:staff -1] x2 | %50
[I:staff +1] _E,/4_A,/4[I:staff -1] x[I:staff +1] A,/4E,/4 x2 | %51
 _G,/4_A,/4[I:staff -1] x[I:staff +1] A,/4G,/4[I:staff -1] x2 | %52
[I:staff +1] _E,/4_A,/4[I:staff -1] x[I:staff +1] A,/4E,/4 =E,/4G,/4[I:staff -1] x/ x/[I:staff +1] G,/4E,/4 | %53
 E,/4G,/4[I:staff -1] x/ x/[I:staff +1] G,/4E,/4 E,/4A,/4[I:staff -1] x/ x/[I:staff +1] A,/4E,/4 | %54
 E,/4=G,/4[I:staff -1] x3/2 x2 | x4 | x4 | x4 | x4 | x4 | x4 | x!8va(! x!8va)! x2 | %62
 x!8va(! x!8va)! x2 | x4 | x4 | x4 | x4 | x4 | x/4[K:bass] x/[K:treble] x13/4 | x4 | x4 | x4 | %72
 x!8va(! x!8va)! x2 | x4 | x!8va(! x3!8va)! | x!8va(! x!8va)! x!8va(! x!8va)! | %76
 x!8va(! x!8va)! !wedge![GB]/!wedge![GB]/ x | !wedge![A=c]/!wedge![Ac]/ x x [=g^a] | %78
 x[K:treble]!8va(! x3!8va)! | x4 | x4 | x11/4!8va(! x/!8va)! x3/4 | x11/4!8va(! x/!8va)! x3/4 | %83
 x4 | x4 | %85
 x/4[K:bass] x/[K:treble] x/[K:bass] x/[K:treble] x/[K:bass] x/[K:treble] x3/4[K:bass] x/ | %86
 x3/4[K:treble] x/[K:bass] x/[K:treble] x/[K:bass] x/[K:treble] x/[K:bass] x/[K:treble] x/4 | %87
 x/4[K:bass] x/[K:treble] x/[K:bass] x/[K:treble] x/[K:bass] x/[K:treble] x3/4[K:bass] x/ | %88
 x5/4[K:treble] x11/4 | x3/2!8va(! x5/2 | x2!8va)! x2 | x3!8va(! x!8va)! | %92
 x!8va(! x!8va)! x!8va(! x!8va)! | x4 |] %94

